X:1
T:I Know He Is Mine
T:I Know He Is Mine
T:Ira David Sankey
T:Philip Paul Bliss, 1874
T:Public Domain Courtesy of the Cyber Hymnal™
T:Public Domain Courtesy of the Cyber Hymnal™
C:Ira David Sankey
Z:Public Domain
Z:Courtesy of the Cyber Hymnal™
%%score ( 1 2 ) ( 3 4 )
L:1/8
Q:1/4=130
M:3/4
K:Ab
V:1 treble 
V:2 treble 
V:3 bass 
V:4 bass 
V:1
 E2 | [Ac]2 [GB]2 [EA]2 | [FA]3 [EG] [DF]2 | [DF]2 [DG]2 [DA]2 | [CE]4 [CE]2 | [DE]2 [DG]2 [DB]2 | %6
w: 1.~A|long time I|wan- dered in|dark- ness and|sin, And|won- dered if|
w: 2.~I|heard the glad|gos- pel of|“good will to|men”; I|read “who- so-|
w: 3.~Oh,|mer- cy sur-|pris- ing! He|saves ev- en|me! “Thy|por- tion for-|
 [Gd]3 [Ec] [EB]2 | [CA]2 [EA]2 [Ac]2 | [GB]4 E2 | E2 [=DF]2 [_DG]2 | [CA]4 EE | %11
w: ev- er the|light would shine|in; I|heard Christ- ian|friends speak of|
w: ev- er” a-|gain and a-|gain; I|said to my|soul, “Can that|
w: ev- er,” He|says, “will I|be”; On|His Word I|am rest- ing—|
 [EA]2 [GB]2 [Ac]2 | [Fd]4 [Fd][Fd] | [Ec]2 [ce]3 [df] | [ce]2 [Ac]2 A2 | [Ac]2 [Ac]2 [GB]2 | A4 || %17
w: rap- tures di-|vine, And I|wished— how I|wished— that their|Sav- ior were|mine.|
w: prom- ise be|thine?” And then|be- ~- gan|hop- ing that|Je- sus was|mine.|
w: assur- ance di-|vine: I am|“hop- ing” no|long- er, I|know He is|mine.|
"^Refrain" [Fd]2 | [Fd]2 [DF]3 [DF] | [DF]4 [DA][DA] | [CA]2 [CE]3 [CE] | [CE]4 [CE]2 | %22
w: I|wished He were|mine, yes, I|wished He were|mine; I|
w: I|hoped He was|mine, yes, I|hoped He was|mine, And|
w: I|know He is|mine, yes, I|know He is|mine, I’m|
 [EA]2 [EB]2 [Ac]2 | [Ad]3 [ce] [Af]2 | [ce]3 [Ac] [GB]2 | A4 |] %26
w: wished— how I|wished— that their|Sav- ior were|mine.|
w: then be- gan|hop- ing that|Je- sus was|mine.|
w: hop- ing no|long- er— I|know He is|mine.|
V:2
 E2 | x6 | x6 | x6 | x6 | x6 | x6 | x6 | x4 E2 | E2 x4 | x4 EE | x6 | x6 | x6 | x4 A2 | x6 | A4 || %17
 x2 | x6 | x6 | x6 | x6 | x6 | x6 | x6 | A4 |] %26
V:3
 [A,,A,]2 | [A,,A,]2 [B,,G,]2 [C,A,]2 | [D,A,]3 [D,A,] [D,A,]2 | [D,A,]2 [D,A,]2 [D,A,]2 | %4
 [A,,A,]4 [A,,A,]2 | [E,G,]2 [E,G,]2 [E,G,]2 | [E,B,]3 [E,A,] [E,G,]2 | A,2 A,2 [A,,A,]2 | %8
 E,4 [E,C]2 | [E,C]2 [E,=B,]2 [E,_B,]2 | [A,,A,]4 E,E, | [E,A,]2 [E,B,]2 A,2 | %12
 [D,A,]4 [D,A,][D,A,] | [A,C]2 [A,C]3 [A,D] | [A,C]2 A,2 (A,C) | [E,E]2 [E,E]2 [E,E]2 | [A,,C]4 || %17
 [D,A,]2 | [D,A,]2 [D,A,]3 [D,A,] | [D,A,]4 [D,A,][D,A,] | [A,,A,]2 [A,,A,]3 [A,,A,] | %21
 [A,,A,]4 [A,,A,]2 | [C,A,]2 [E,G,]2 A,2 | [D,A,]3 [D,D] [D,D]2 | [E,C]3 [E,E] [E,D]2 | [A,,C]4 |] %26
V:4
 x2 | x6 | x6 | x6 | x6 | x6 | x6 | A,2 A,2 x2 | E,4 x2 | x6 | x4 E,E, | x4 A,2 | x6 | x6 | %14
 x2 A,2 F,2 | x6 | x4 || x2 | x6 | x6 | x6 | x6 | x4 A,2 | x6 | x6 | x4 |] %26

